X:1
T:Lucas, 10.5.11.12.5.12.12
T:Lucas, 10.5.11.12.5.12.12
T:James Lucas  (1820-?)
T:Public Domain Courtesy of the Cyber Hymnal™
C:James Lucas  (1820-?)
Z:Public Domain
Z:Courtesy of the Cyber Hymnal™
%%score ( 1 2 ) ( 3 4 )
L:1/8
Q:1/4=110
M:2/4
K:G
V:1 treble 
V:2 treble 
V:3 bass 
V:4 bass 
V:1
 [B,D][B,D] | [DG]2 [DG][DG] | [DG]2 [DF][DG] | [DA]2 [DA][DA] | [DA]2 [Dd][Dd] | [DB]2 [DB][DG] | %6
 [DA]2 [DA][DA] | (A>G) [DF][DG] | [DA]2 [DA][DB] | ([DA]>[EG]) [DF][^CE] | !fermata!D2 [Dd][Dd] | %11
 [Dd]2 [Dc][DB] | [Dc]2 [Dc][Dc] | [Dc]2 [DB][DA] | [DB]2 [Dd][Dd] | [Dd]2 [B,B][G,G] | D2 DD | %17
 ([B,G][DA]) [GB][Ac] | [Bd]2 [GB][Bd] | ([Bd][Ac]) [Ac][GB] | [FA]2 DD | (GA) [DB][Dc] | %22
 [Dd]2 [DG][DB] | (BA) [DG][DF] | [B,G]2 |] %25
V:2
 x2 | x4 | x4 | x4 | x4 | x4 | x4 | D2 x2 | x4 | x4 | D2 x2 | x4 | x4 | x4 | x4 | x4 | D2 DD | x4 | %18
 x4 | x4 | x2 DD | D2 x2 | x4 | D2 x2 | x2 |] %25
V:3
 [G,,G,][G,,G,] | [G,,B,]2 [G,,B,][G,,B,] | [G,,B,]2 [G,,A,][G,,B,] | [D,F,]2 [D,F,][D,F,] | %4
 [D,F,]2 [D,F,][D,F,] | [G,,G,]2 [G,,G,][B,,G,] | [D,F,]2 [D,F,][D,F,] | (F,>E,) D,[D,E,] | %8
 [D,F,]2 [D,F,][G,,G,] | (F,>G,) [A,,A,][A,,G,] | !fermata![D,F,]2 [D,B,][D,B,] | %11
 [D,B,]2 [D,A,][D,G,] | [D,A,]2 [D,A,][D,A,] | [D,A,]2 [D,G,][D,F,] | G,2 [D,D][D,D] | %15
 [D,D]2 [B,,B,][G,,G,] | D,2 [D,F,][C,A,] | ([B,,G,][D,A,]) [G,B,][A,C] | [B,D]2 [G,B,][B,D] | %19
 ([B,D][A,C]) [A,C][G,B,] | [D,A,]2 [D,F,][C,A,] | ([B,,G,][D,F,]) G,[G,A,] | %22
 [G,B,]2 [G,,B,][G,,D] | (DC) [D,B,][D,A,] | [G,,G,]2 |] %25
V:4
 x2 | x4 | x4 | x4 | x4 | x4 | x4 | D,2 D, x | x4 | A,,2 x2 | x4 | x4 | x4 | x4 | G,2 x2 | x4 | %16
 D,2 x2 | x4 | x4 | x4 | x4 | x2 G, x | x4 | D,2 x2 | x2 |] %25

